docs/public/static/branding/companies/nasa-dark.svg

<svg width="45" height="37" viewBox="0 0 45 37" fill="none" xmlns="http://www.w3.org/2000/svg">
<path d="M20.9174 36.8249C31.0863 36.8249 39.3298 28.5814 39.3298 18.4125C39.3298 8.24354 31.0863 0 20.9174 0C10.7484 0 2.50488 8.24354 2.50488 18.4125C2.50488 28.5814 10.7484 36.8249 20.9174 36.8249Z" fill="#0B3D91"/>
<path d="M19.8304 3.74291C19.9444 3.74291 20.0369 3.6505 20.0369 3.5365C20.0369 3.42249 19.9444 3.33008 19.8304 3.33008C19.7164 3.33008 19.624 3.42249 19.624 3.5365C19.624 3.6505 19.7164 3.74291 19.8304 3.74291Z" fill="white"/>
<path d="M21.9496 4.0183C22.0636 4.0183 22.156 3.92589 22.156 3.81189C22.156 3.69789 22.0636 3.60547 21.9496 3.60547C21.8356 3.60547 21.7432 3.69789 21.7432 3.81189C21.7432 3.92589 21.8356 4.0183 21.9496 4.0183Z" fill="white"/>
<path d="M24.7294 7.76098C24.8434 7.76098 24.9358 7.66856 24.9358 7.55456C24.9358 7.44056 24.8434 7.34814 24.7294 7.34814C24.6154 7.34814 24.5229 7.44056 24.5229 7.55456C24.5229 7.66856 24.6154 7.76098 24.7294 7.76098Z" fill="white"/>
<path d="M9.48181 27.0266C9.59581 27.0266 9.68823 26.9342 9.68823 26.8202C9.68823 26.7062 9.59581 26.6138 9.48181 26.6138C9.36781 26.6138 9.27539 26.7062 9.27539 26.8202C9.27539 26.9342 9.36781 27.0266 9.48181 27.0266Z" fill="white"/>
<path d="M10.0184 28.678C10.1324 28.678 10.2248 28.5856 10.2248 28.4716C10.2248 28.3576 10.1324 28.2651 10.0184 28.2651C9.90443 28.2651 9.81201 28.3576 9.81201 28.4716C9.81201 28.5856 9.90443 28.678 10.0184 28.678Z" fill="white"/>
<path d="M7.45878 27.2227C7.54416 27.2227 7.61337 27.1535 7.61337 27.0682C7.61337 26.9828 7.54416 26.9136 7.45878 26.9136C7.37341 26.9136 7.3042 26.9828 7.3042 27.0682C7.3042 27.1535 7.37341 27.2227 7.45878 27.2227Z" fill="white"/>
<path d="M15.8538 30.4668C15.9394 30.4668 16.0088 30.3974 16.0088 30.3118C16.0088 30.2262 15.9394 30.1567 15.8538 30.1567C15.7681 30.1567 15.6987 30.2262 15.6987 30.3118C15.6987 30.3974 15.7681 30.4668 15.8538 30.4668Z" fill="white"/>
<path d="M29.0193 27.7315C29.1047 27.7315 29.1739 27.6623 29.1739 27.5769C29.1739 27.4916 29.1047 27.4224 29.0193 27.4224C28.934 27.4224 28.8647 27.4916 28.8647 27.5769C28.8647 27.6623 28.934 27.7315 29.0193 27.7315Z" fill="white"/>
<path d="M32.845 23.5762C32.9306 23.5762 33 23.5068 33 23.4212C33 23.3355 32.9306 23.2661 32.845 23.2661C32.7594 23.2661 32.6899 23.3355 32.6899 23.4212C32.6899 23.5068 32.7594 23.5762 32.845 23.5762Z" fill="white"/>
<path d="M14.0921 8.91659C14.1775 8.91659 14.2467 8.84738 14.2467 8.76201C14.2467 8.67663 14.1775 8.60742 14.0921 8.60742C14.0067 8.60742 13.9375 8.67663 13.9375 8.76201C13.9375 8.84738 14.0067 8.91659 14.0921 8.91659Z" fill="white"/>
<path d="M18.3025 5.82382C18.3879 5.82382 18.4571 5.75461 18.4571 5.66923C18.4571 5.58386 18.3879 5.51465 18.3025 5.51465C18.2172 5.51465 18.1479 5.58386 18.1479 5.66923C18.1479 5.75461 18.2172 5.82382 18.3025 5.82382Z" fill="white"/>
<path d="M17.8455 5.52108C17.9309 5.52108 18.0001 5.45187 18.0001 5.3665C18.0001 5.28112 17.9309 5.21191 17.8455 5.21191C17.7601 5.21191 17.6909 5.28112 17.6909 5.3665C17.6909 5.45187 17.7601 5.52108 17.8455 5.52108Z" fill="white"/>
<path d="M17.4324 5.21835C17.5178 5.21835 17.587 5.14914 17.587 5.06376C17.587 4.97839 17.5178 4.90918 17.4324 4.90918C17.347 4.90918 17.2778 4.97839 17.2778 5.06376C17.2778 5.14914 17.347 5.21835 17.4324 5.21835Z" fill="white"/>
<path d="M14.7522 9.71542C14.8376 9.71542 14.9068 9.64621 14.9068 9.56083C14.9068 9.47546 14.8376 9.40625 14.7522 9.40625C14.6669 9.40625 14.5977 9.47546 14.5977 9.56083C14.5977 9.64621 14.6669 9.71542 14.7522 9.71542Z" fill="white"/>
<path d="M20.9554 1.66805C21.0407 1.66805 21.1099 1.59885 21.1099 1.51347C21.1099 1.4281 21.0407 1.35889 20.9554 1.35889C20.87 1.35889 20.8008 1.4281 20.8008 1.51347C20.8008 1.59885 20.87 1.66805 20.9554 1.66805Z" fill="white"/>
<path d="M21.9739 6.12655C22.0593 6.12655 22.1285 6.05734 22.1285 5.97197C22.1285 5.88659 22.0593 5.81738 21.9739 5.81738C21.8885 5.81738 21.8193 5.88659 21.8193 5.97197C21.8193 6.05734 21.8885 6.12655 21.9739 6.12655Z" fill="white"/>
<path d="M20.367 5.25595C20.4524 5.25595 20.5216 5.18674 20.5216 5.10136C20.5216 5.01599 20.4524 4.94678 20.367 4.94678C20.2816 4.94678 20.2124 5.01599 20.2124 5.10136C20.2124 5.18674 20.2816 5.25595 20.367 5.25595Z" fill="white"/>
<path d="M17.615 6.44003C17.7004 6.44003 17.7696 6.37082 17.7696 6.28544C17.7696 6.20007 17.7004 6.13086 17.615 6.13086C17.5297 6.13086 17.4604 6.20007 17.4604 6.28544C17.4604 6.37082 17.5297 6.44003 17.615 6.44003Z" fill="white"/>
<path d="M29.7522 31.816C29.8376 31.816 29.9068 31.7468 29.9068 31.6614C29.9068 31.576 29.8376 31.5068 29.7522 31.5068C29.6669 31.5068 29.5977 31.576 29.5977 31.6614C29.5977 31.7468 29.6669 31.816 29.7522 31.816Z" fill="white"/>
<path d="M9.22047 28.021C9.3061 28.021 9.37551 27.9516 9.37551 27.866C9.37551 27.7804 9.3061 27.7109 9.22047 27.7109C9.13484 27.7109 9.06543 27.7804 9.06543 27.866C9.06543 27.9516 9.13484 28.021 9.22047 28.021Z" fill="white"/>
<path d="M19.9817 30.0161C20.0673 30.0161 20.1367 29.9467 20.1367 29.8611C20.1367 29.7755 20.0673 29.7061 19.9817 29.7061C19.8961 29.7061 19.8267 29.7755 19.8267 29.8611C19.8267 29.9467 19.8961 30.0161 19.9817 30.0161Z" fill="white"/>
<path d="M12.4231 27.8975C12.5087 27.8975 12.5782 27.8281 12.5782 27.7424C12.5782 27.6568 12.5087 27.5874 12.4231 27.5874C12.3375 27.5874 12.2681 27.6568 12.2681 27.7424C12.2681 27.8281 12.3375 27.8975 12.4231 27.8975Z" fill="white"/>
<path d="M13.762 30.0821C13.8476 30.0821 13.917 30.0126 13.917 29.927C13.917 29.8414 13.8476 29.772 13.762 29.772C13.6763 29.772 13.6069 29.8414 13.6069 29.927C13.6069 30.0126 13.6763 30.0821 13.762 30.0821Z" fill="white"/>
<path d="M23.6145 28.7057C23.6999 28.7057 23.7691 28.6364 23.7691 28.5511C23.7691 28.4657 23.6999 28.3965 23.6145 28.3965C23.5292 28.3965 23.46 28.4657 23.46 28.5511C23.46 28.6364 23.5292 28.7057 23.6145 28.7057Z" fill="white"/>
<path d="M29.0462 25.6397C29.1316 25.6397 29.2008 25.5705 29.2008 25.4851C29.2008 25.3998 29.1316 25.3306 29.0462 25.3306C28.9608 25.3306 28.8916 25.3998 28.8916 25.4851C28.8916 25.5705 28.9608 25.6397 29.0462 25.6397Z" fill="white"/>
<path d="M33.1648 27.5216C33.2502 27.5216 33.3194 27.4524 33.3194 27.367C33.3194 27.2816 33.2502 27.2124 33.1648 27.2124C33.0795 27.2124 33.0103 27.2816 33.0103 27.367C33.0103 27.4524 33.0795 27.5216 33.1648 27.5216Z" fill="white"/>
<path d="M34.5686 28.4195C34.654 28.4195 34.7232 28.3503 34.7232 28.2649C34.7232 28.1796 34.654 28.1104 34.5686 28.1104C34.4833 28.1104 34.4141 28.1796 34.4141 28.2649C34.4141 28.3503 34.4833 28.4195 34.5686 28.4195Z" fill="white"/>
<path d="M34.7991 25.9703C34.8845 25.9703 34.9537 25.9011 34.9537 25.8157C34.9537 25.7303 34.8845 25.6611 34.7991 25.6611C34.7137 25.6611 34.6445 25.7303 34.6445 25.8157C34.6445 25.9011 34.7137 25.9703 34.7991 25.9703Z" fill="white"/>
<path d="M14.3221 22.5025C14.4074 22.5025 14.4766 22.4333 14.4766 22.3479C14.4766 22.2626 14.4074 22.1934 14.3221 22.1934C14.2367 22.1934 14.1675 22.2626 14.1675 22.3479C14.1675 22.4333 14.2367 22.5025 14.3221 22.5025Z" fill="white"/>
<path d="M14.3812 26.1047C14.4952 26.1047 14.5876 26.0123 14.5876 25.8983C14.5876 25.7843 14.4952 25.6919 14.3812 25.6919C14.2672 25.6919 14.1748 25.7843 14.1748 25.8983C14.1748 26.0123 14.2672 26.1047 14.3812 26.1047Z" fill="white"/>
<path d="M15.6195 28.7195C15.7335 28.7195 15.8259 28.6271 15.8259 28.5131C15.8259 28.3991 15.7335 28.3066 15.6195 28.3066C15.5055 28.3066 15.4131 28.3991 15.4131 28.5131C15.4131 28.6271 15.5055 28.7195 15.6195 28.7195Z" fill="white"/>
<path d="M30.454 25.9949C30.568 25.9949 30.6604 25.9025 30.6604 25.7884C30.6604 25.6744 30.568 25.582 30.454 25.582C30.34 25.582 30.2476 25.6744 30.2476 25.7884C30.2476 25.9025 30.34 25.9949 30.454 25.9949Z" fill="white"/>
<path d="M35.7933 25.6921C35.9073 25.6921 35.9998 25.5997 35.9998 25.4857C35.9998 25.3717 35.9073 25.2793 35.7933 25.2793C35.6793 25.2793 35.5869 25.3717 35.5869 25.4857C35.5869 25.5997 35.6793 25.6921 35.7933 25.6921Z" fill="white"/>
<path d="M33.1508 24.5637C33.2648 24.5637 33.3572 24.4713 33.3572 24.3573C33.3572 24.2433 33.2648 24.1509 33.1508 24.1509C33.0368 24.1509 32.9443 24.2433 32.9443 24.3573C32.9443 24.4713 33.0368 24.5637 33.1508 24.5637Z" fill="white"/>
<path d="M30.454 24.6736C30.568 24.6736 30.6604 24.5812 30.6604 24.4672C30.6604 24.3532 30.568 24.2607 30.454 24.2607C30.34 24.2607 30.2476 24.3532 30.2476 24.4672C30.2476 24.5812 30.34 24.6736 30.454 24.6736Z" fill="white"/>
<path d="M24.8899 3.40684L25.4032 3.35776L24.8908 3.32886C24.8748 3.22978 24.7954 3.15226 24.6954 3.13942L24.6463 2.62842L24.617 3.14355C24.5243 3.16419 24.4532 3.24171 24.4418 3.33804L23.917 3.38574L24.4454 3.41418C24.4647 3.50271 24.5362 3.57198 24.6262 3.58849L24.6739 4.11508L24.7018 3.58941C24.7968 3.57335 24.872 3.50042 24.8899 3.40684Z" fill="white"/>
<path d="M16.2273 9.12169L16.7406 9.0726L16.2282 9.04371C16.2126 8.94463 16.1328 8.8671 16.0328 8.85426L15.9837 8.34326L15.9548 8.85839C15.8617 8.87903 15.7906 8.95655 15.7792 9.05288L15.2544 9.10059L15.7828 9.12903C15.8021 9.21756 15.8736 9.28682 15.9636 9.30333L16.0113 9.82993L16.0397 9.30425C16.1347 9.28865 16.2099 9.21526 16.2273 9.12169Z" fill="white"/>
<path d="M35.4173 24.2306L35.9306 24.1815L35.4182 24.1526C35.4026 24.0535 35.3228 23.976 35.2228 23.9631L35.1737 23.4521L35.1448 23.9673C35.0522 23.9879 34.9811 24.0654 34.9696 24.1618L34.4448 24.2095L34.9733 24.2379C34.9925 24.3264 35.0641 24.3957 35.154 24.4122L35.2017 24.9388L35.2301 24.4131C35.3242 24.3975 35.3994 24.3246 35.4173 24.2306Z" fill="white"/>
<path d="M14.4929 32.1305L15.0062 32.0814L14.4939 32.0525C14.4778 31.9534 14.3984 31.8759 14.2984 31.8631L14.2494 31.3525L14.2205 31.8672C14.1273 31.8878 14.0562 31.9654 14.0448 32.0617L13.52 32.1094L14.0484 32.1378C14.0677 32.2264 14.1393 32.2961 14.2292 32.3122L14.2769 32.8387L14.3053 32.3131C14.3998 32.2975 14.4755 32.2241 14.4929 32.1305Z" fill="white"/>
<path d="M33.7864 28.277L34.2997 28.2279L33.7873 28.199C33.7717 28.0999 33.6919 28.0224 33.5919 28.0095L33.5428 27.4985L33.514 28.0132C33.4213 28.0338 33.3502 28.1114 33.3387 28.2077L32.814 28.2554L33.3424 28.2838C33.3617 28.3724 33.4332 28.4416 33.5231 28.4581L33.5708 28.9847L33.5993 28.4591C33.6933 28.4439 33.769 28.3705 33.7864 28.277Z" fill="white"/>
<path d="M25.2839 14.0017C23.1431 14.8338 21.0551 15.5765 19.2932 16.1278C15.713 17.2489 5.91731 20.2837 0 24.1093L0.495403 24.302C4.10083 22.2653 6.44436 21.6254 8.69707 20.9167C11.1466 20.1461 19.0652 18.2929 22.6509 17.2838C23.8624 16.943 25.2811 16.4966 26.7839 15.9535C26.4343 15.4659 26.0655 14.9769 25.6775 14.4889C25.5476 14.3242 25.416 14.1618 25.2839 14.0017ZM27.8994 17.6067C27.3811 17.9567 26.9467 18.2361 26.6426 18.4122C24.8811 19.4305 16.2937 25.2928 14.3401 26.6414C12.3864 27.99 6.96408 33.1091 5.36778 34.5954L5.31274 35.2004C10.4594 30.5766 12.0741 29.4363 14.1199 27.8799C16.652 25.9533 21.8899 22.3892 23.6702 21.247C25.372 20.1553 26.9068 19.1512 28.2843 18.2324C28.2618 18.1948 28.2393 18.1572 28.2169 18.1191C28.1132 17.9489 28.0072 17.7783 27.8994 17.6067ZM35.9447 9.10964C33.4374 10.5793 29.4856 12.3531 25.6518 13.8582C25.7435 13.9705 25.8348 14.0838 25.9256 14.1981C26.354 14.7375 26.7582 15.2806 27.1384 15.8242C30.1521 14.7141 33.459 13.2242 36.0828 11.4211C34.8328 12.6054 30.7003 15.6939 28.1806 17.4154C28.3104 17.6269 28.4361 17.8384 28.5577 18.0489C32.375 15.4944 34.9438 13.6141 36.4405 12.3568C38.5047 10.6229 43.211 6.74226 45 1.54053C41.862 5.53173 38.152 7.81563 35.9447 9.10964Z" fill="#FC3D21"/>
<path d="M18.5481 22.9713C18.1421 22.4603 17.5807 21.7759 17.1591 21.2452C16.5954 20.5356 16.0738 19.8186 15.5959 19.1026C15.4399 19.1416 15.2844 19.1806 15.1289 19.2196C15.7059 20.12 16.3468 21.0191 17.0449 21.8979C17.555 22.5401 18.0187 23.0571 18.2564 23.3786C18.3045 23.4438 18.3999 23.5878 18.5288 23.7796C18.6774 23.6786 18.8274 23.5768 18.9788 23.4741C18.8325 23.3149 18.688 23.1475 18.5481 22.9713ZM21.5113 25.6612C21.1779 25.3456 20.3692 24.8185 19.5274 24.0277C19.3417 24.1552 19.154 24.2846 18.966 24.4149C19.5095 25.1809 20.2499 26.1217 20.8297 26.396C21.7031 26.8098 21.9384 26.0657 21.5113 25.6612ZM25.9255 14.1981C21.1127 8.14042 15.2335 4.81251 12.6987 6.82669C10.7299 8.39088 11.5381 12.9623 14.2519 17.7645C14.3922 17.7164 14.5312 17.6691 14.6688 17.6223C11.9299 12.9435 11.1804 8.59546 13.0372 7.1198C15.3706 5.26571 21.0049 8.60647 25.6782 14.4885C26.6456 15.7059 27.4961 16.9279 28.2162 18.1191C30.974 22.6832 31.8203 26.8107 29.9148 28.4955C29.3318 29.0111 27.5502 29.2134 25.2163 28.1629C25.1837 28.2038 25.236 28.3143 25.2769 28.3414C27.2915 29.1515 29.2213 29.4602 30.1956 28.6863C32.5368 26.8258 30.7382 20.2558 25.9255 14.1981Z" fill="white"/>
<path d="M5.28467 14.917H8.36717L10.9543 19.3068C10.9543 19.3068 10.9543 16.128 10.9543 15.8803C10.9543 15.495 10.4658 14.9927 10.2937 14.917C10.5002 14.917 12.3029 14.917 12.4267 14.917C12.296 14.9514 11.8763 15.4606 11.8763 15.8803C11.8763 16.0867 11.8763 20.6967 11.8763 20.9169C11.8763 21.2265 12.3235 21.6531 12.5368 21.8182H9.5644L6.93601 17.4078C6.93601 17.4078 6.93601 20.6967 6.93601 20.8756C6.93601 21.2196 7.27316 21.5499 7.62407 21.832H5.35347C5.67686 21.6944 5.98649 21.2609 6.01401 20.9169C6.04153 20.5728 6.01401 16.1349 6.01401 15.9422C6.01401 15.5225 5.60806 15.1785 5.28467 14.917Z" fill="white"/>
<path d="M33.4812 21.8182H37.582C37.355 21.7632 37.1004 21.4948 36.9628 21.137C36.8252 20.7793 34.6509 14.917 34.6509 14.917H33.0918C32.6496 15.2353 32.1757 15.5711 31.6698 15.9248C31.6684 15.9376 31.667 15.9505 31.6647 15.9628C31.5968 16.3757 30.3767 20.7949 30.3024 21.0132C30.1992 21.3159 29.6694 21.6531 29.4561 21.832H31.6647C31.4445 21.5843 31.2656 21.3435 31.3069 21.0682C31.3482 20.793 31.4721 20.2426 31.4721 20.2426H33.7564C33.8596 20.5178 33.9367 20.765 33.9766 20.9994C34.0248 21.2815 33.7358 21.598 33.4812 21.8182ZM31.6785 19.3619L32.4491 16.8436L33.4674 19.3619H31.6785ZM31.3312 15.1684C31.4445 15.0849 31.5583 15.0009 31.6716 14.917H31.073C31.1326 14.972 31.2312 15.0587 31.3312 15.1684Z" fill="white"/>
<path d="M15.6473 21.0682C15.6885 20.793 15.8124 20.2426 15.8124 20.2426H18.0968C18.2 20.5178 18.277 20.765 18.3169 20.9994C18.3651 21.2815 18.0761 21.598 17.8215 21.8182H21.432C21.5072 21.7678 21.582 21.7173 21.6568 21.6673C21.5169 21.5435 21.388 21.3577 21.3031 21.137C21.1655 20.7793 18.9912 14.917 18.9912 14.917H15.4133C15.5853 15.0752 16.0807 15.5018 16.0051 15.9628C15.9376 16.3757 14.717 20.7949 14.6427 21.0132C14.5395 21.3159 14.0097 21.6531 13.7964 21.832H16.0051C15.7849 21.5843 15.606 21.3435 15.6473 21.0682ZM16.7894 16.8436L17.8078 19.3619H16.0188L16.7894 16.8436Z" fill="white"/>
<path d="M28.1188 18.3427C27.4454 18.7913 26.7349 19.2597 25.9863 19.7487C26.322 19.9115 26.5895 20.1161 26.6152 20.3803C26.6629 20.8766 25.6656 21.1165 24.7643 21.0133C24.584 20.9927 24.4069 20.9454 24.2381 20.8821C24.051 21.0028 23.862 21.1243 23.6703 21.2472C23.4753 21.3725 23.2386 21.5266 22.9684 21.7046V22.4169C23.1473 22.066 23.5386 21.7518 23.8423 21.7358C23.973 21.7289 24.4271 22.1486 26.2986 22.0454C27.2069 21.9954 28.9614 21.0271 28.9339 19.9124C28.9174 19.2537 28.5734 18.74 28.1188 18.3427ZM22.968 20.0638V20.7895C23.1336 20.6789 23.2969 20.5702 23.457 20.4642C23.2051 20.289 23.0267 20.1252 22.968 20.0638ZM27.4789 17.8872C27.3046 17.784 27.128 17.6936 26.9587 17.6138C26.078 17.201 25.156 17.1253 24.9633 16.568C24.8276 16.1749 25.2111 15.8111 26.1468 15.8249C27.0826 15.8386 27.9495 16.396 28.1835 16.5955V14.8203C28.1147 14.8891 27.8128 15.2354 27.5367 15.1781C27.0069 15.068 26.1055 14.9244 25.0734 14.9304C23.89 14.9373 22.8716 15.8519 22.8372 17.0083C22.7891 18.6253 24.0826 19.0656 24.812 19.3202C24.8872 19.3464 24.973 19.3743 25.0661 19.4042C25.7656 18.9491 26.3188 18.5987 26.6427 18.412C26.8601 18.2868 27.145 18.1069 27.4789 17.8872Z" fill="white"/>
</svg>

<svg width="45" height="37" fill="none" xmlns="http://www.w3.org/2000/svg">
  <path d="M20.917 36.825c10.17 0 18.413-8.244 18.413-18.413C39.33 8.245 31.086 0 20.917 0S2.505 8.244 2.505 18.413c0 10.168 8.243 18.412 18.412 18.412z" fill="#0B3D91"/>
  <path d="M19.83 3.743a.206.206 0 100-.413.206.206 0 000 .413zM21.95 4.018a.206.206 0 100-.412.206.206 0 000 .412zM24.73 7.761a.206.206 0 100-.413.206.206 0 000 .413zM9.482 27.027a.206.206 0 100-.413.206.206 0 000 .413zM10.018 28.678a.206.206 0 100-.413.206.206 0 000 .413zM7.459 27.223a.155.155 0 100-.31.155.155 0 000 .31zM15.854 30.467a.155.155 0 100-.31.155.155 0 000 .31zM29.02 27.732a.155.155 0 100-.31.155.155 0 000 .31zM32.845 23.576a.155.155 0 100-.31.155.155 0 000 .31zM14.092 8.917a.155.155 0 100-.31.155.155 0 000 .31zM18.302 5.824a.155.155 0 100-.31.155.155 0 000 .31zM17.846 5.521a.155.155 0 100-.31.155.155 0 000 .31zM17.432 5.218a.155.155 0 100-.309.155.155 0 000 .31zM14.752 9.715a.155.155 0 100-.309.155.155 0 000 .31zM20.955 1.668a.155.155 0 100-.31.155.155 0 000 .31zM21.974 6.127a.155.155 0 100-.31.155.155 0 000 .31zM20.367 5.256a.155.155 0 100-.31.155.155 0 000 .31zM17.615 6.44a.155.155 0 100-.31.155.155 0 000 .31zM29.752 31.816a.155.155 0 100-.31.155.155 0 000 .31zM9.22 28.021a.155.155 0 100-.31.155.155 0 000 .31zM19.982 30.016a.155.155 0 100-.31.155.155 0 000 .31zM12.423 27.898a.155.155 0 100-.31.155.155 0 000 .31zM13.762 30.082a.155.155 0 100-.31.155.155 0 000 .31zM23.614 28.706a.155.155 0 100-.31.155.155 0 000 .31zM29.046 25.64a.155.155 0 100-.31.155.155 0 000 .31zM33.165 27.522a.155.155 0 100-.31.155.155 0 000 .31zM34.569 28.42a.155.155 0 100-.31.155.155 0 000 .31zM34.8 25.97a.155.155 0 100-.309.155.155 0 000 .31zM14.322 22.503a.155.155 0 100-.31.155.155 0 000 .31zM14.381 26.105a.206.206 0 100-.413.206.206 0 000 .413zM15.62 28.72a.206.206 0 100-.413.206.206 0 000 .413zM30.454 25.995a.206.206 0 100-.413.206.206 0 000 .413zM35.793 25.692a.206.206 0 100-.413.206.206 0 000 .413zM33.15 24.564a.206.206 0 100-.413.206.206 0 000 .413zM30.454 24.674a.206.206 0 100-.413.206.206 0 000 .413zM24.89 3.407l.513-.05-.512-.028a.228.228 0 00-.196-.19l-.049-.51-.029.515a.226.226 0 00-.175.194l-.525.048.528.028c.02.089.091.158.181.174l.048.527.028-.526a.23.23 0 00.188-.182zM16.227 9.122l.514-.05-.513-.028a.227.227 0 00-.195-.19l-.05-.51-.028.514a.226.226 0 00-.176.195l-.525.048.529.028c.02.089.09.158.18.174l.048.527.029-.526a.228.228 0 00.187-.182zM35.417 24.23l.514-.049-.513-.028a.227.227 0 00-.195-.19l-.05-.51-.028.514a.227.227 0 00-.175.195l-.525.047.528.029c.02.088.091.158.181.174l.048.527.028-.526a.229.229 0 00.187-.182zM14.493 32.13l.513-.049-.512-.029a.228.228 0 00-.196-.189l-.049-.51-.029.514a.226.226 0 00-.175.195l-.525.047.528.029c.02.088.091.158.181.174l.048.527.028-.526a.229.229 0 00.188-.183zM33.786 28.277l.514-.05-.513-.028a.227.227 0 00-.195-.19l-.05-.51-.028.514a.227.227 0 00-.175.195l-.525.047.528.029c.02.088.091.158.181.174l.048.527.028-.526a.228.228 0 00.187-.182z" fill="#fff"/>
  <path d="M25.284 14.002c-2.14.832-4.229 1.574-5.99 2.126C15.712 17.248 5.916 20.284 0 24.109l.495.193c3.606-2.037 5.95-2.677 8.202-3.385 2.45-.77 10.368-2.624 13.954-3.633a60.63 60.63 0 004.133-1.33 36.946 36.946 0 00-1.5-1.952zm2.615 3.605c-.518.35-.952.63-1.256.805-1.762 1.018-10.35 6.88-12.303 8.23-1.954 1.348-7.376 6.467-8.972 7.953l-.055.605c5.146-4.623 6.761-5.764 8.807-7.32 2.532-1.927 7.77-5.49 9.55-6.633a309.538 309.538 0 004.614-3.015 44.08 44.08 0 00-.385-.626zm8.046-8.497c-2.508 1.47-6.46 3.243-10.293 4.748a32.472 32.472 0 011.486 1.966c3.014-1.11 6.321-2.6 8.945-4.403-1.25 1.184-5.383 4.273-7.902 5.994.13.212.255.423.377.634 3.817-2.555 6.386-4.435 7.883-5.692C38.505 10.623 43.21 6.742 45 1.54c-3.138 3.99-6.848 6.275-9.055 7.569z" fill="#FC3D21"/>
  <path d="M18.548 22.971c-.406-.51-.967-1.195-1.389-1.726a32.091 32.091 0 01-1.563-2.142l-.467.117c.577.9 1.218 1.8 1.916 2.678.51.642.974 1.16 1.211 1.48.049.066.144.21.273.402l.45-.306a9.18 9.18 0 01-.43-.503zm2.963 2.69c-.333-.315-1.142-.843-1.984-1.633l-.561.387c.543.766 1.284 1.707 1.864 1.981.873.414 1.108-.33.681-.735zm4.415-11.463C21.113 8.14 15.233 4.813 12.698 6.827c-1.97 1.564-1.16 6.135 1.553 10.938l.417-.143c-2.74-4.678-3.489-9.027-1.632-10.502 2.334-1.854 7.968 1.486 12.641 7.369a34.861 34.861 0 012.538 3.63c2.758 4.564 3.604 8.692 1.699 10.377-.583.515-2.365.717-4.699-.333-.032.04.02.151.06.178 2.015.81 3.945 1.12 4.92.345 2.34-1.86.542-8.43-4.27-14.488zM5.285 14.917h3.082l2.587 4.39V15.88c0-.385-.488-.887-.66-.963h2.133c-.131.034-.55.544-.55.963v5.037c0 .31.446.736.66.901H9.564l-2.628-4.41v3.468c0 .344.337.674.688.956h-2.27c.323-.138.632-.571.66-.915.028-.344 0-4.782 0-4.975 0-.42-.406-.764-.73-1.025z" fill="#fff"/>
  <path d="M33.481 21.818h4.101c-.227-.055-.482-.323-.62-.681-.137-.358-2.311-6.22-2.311-6.22h-1.56c-.441.318-.915.654-1.421 1.008l-.005.038c-.068.413-1.288 4.832-1.363 5.05-.103.303-.633.64-.846.819h2.209c-.22-.248-.4-.489-.358-.764.041-.275.165-.825.165-.825h2.284c.104.275.18.522.22.756.049.283-.24.599-.495.82zm-1.803-2.456l.771-2.518 1.018 2.518H31.68zm-.347-4.194l.34-.251h-.598c.06.055.158.142.258.251zM15.647 21.068c.041-.275.165-.825.165-.825h2.285c.103.275.18.522.22.756.048.283-.24.599-.495.82h3.61l.225-.152a1.375 1.375 0 01-.354-.53c-.137-.358-2.312-6.22-2.312-6.22h-3.578c.172.158.668.585.592 1.046-.067.413-1.288 4.832-1.362 5.05-.104.303-.633.64-.847.819h2.21c-.221-.248-.4-.489-.359-.764zm1.142-4.224l1.019 2.518h-1.79l.771-2.518zM28.119 18.343c-.674.448-1.384.917-2.133 1.406.336.163.604.367.63.631.047.497-.95.736-1.852.633a2.226 2.226 0 01-.526-.13l-.568.364c-.195.125-.431.28-.702.458v.712c.18-.351.57-.665.874-.681.131-.007.585.413 2.457.31.908-.05 2.662-1.019 2.635-2.134-.017-.658-.36-1.172-.815-1.57zm-5.151 1.72v.727l.489-.326a3.616 3.616 0 01-.489-.4zm4.51-2.176a6.262 6.262 0 00-.52-.273c-.88-.413-1.802-.489-1.995-1.046-.135-.393.248-.757 1.184-.743.936.014 1.803.571 2.037.77V14.82c-.07.07-.371.415-.647.358-.53-.11-1.431-.254-2.464-.248-1.183.007-2.201.922-2.236 2.078-.048 1.617 1.246 2.058 1.975 2.312.075.026.161.054.254.084.7-.455 1.253-.805 1.577-.992.217-.125.502-.305.836-.525z" fill="#fff"/>
</svg>
